packages/core/src/svgs/rvst.svg

<svg width="24" height="24" viewBox="0 0 24 24" fill="none" xmlns="http://www.w3.org/2000/svg">
<g clip-path="url(#clip0_31_18221)">
<path d="M0 0H24V24H0V0Z" fill="#F0F3FA"/>
<path d="M10.4228 8.19423C10.9226 7.98711 11.4582 7.88046 11.9992 7.88037C12.5402 7.88028 13.0759 7.98674 13.5758 8.19368C14.0756 8.40063 14.5298 8.70399 14.9124 9.08647C15.295 9.46894 15.5985 9.92302 15.8057 10.4228C16.0128 10.9226 16.1194 11.4582 16.1195 11.9992C16.1196 12.5402 16.0131 13.0759 15.8062 13.5758C15.5993 14.0756 15.2959 14.5298 14.9134 14.9124C14.5309 15.295 14.0769 15.5985 13.5771 15.8057C12.5677 16.2239 11.4336 16.2241 10.4241 15.8062C9.41462 15.3883 8.61251 14.5864 8.19423 13.5771C7.77594 12.5677 7.77575 11.4336 8.19368 10.4241C8.61162 9.41462 9.41346 8.61251 10.4228 8.19423ZM11.9999 8.51565C11.5424 8.51565 11.0893 8.60578 10.6666 8.78088C10.2438 8.95598 9.85972 9.21263 9.53618 9.53618C9.21263 9.85972 8.95598 10.2438 8.78088 10.6666C8.60578 11.0893 8.51565 11.5424 8.51565 11.9999C8.51565 12.4575 8.60578 12.9106 8.78088 13.3333C8.95598 13.7561 9.21263 14.1402 9.53618 14.4637C9.85972 14.7872 10.2438 15.0439 10.6666 15.219C11.0893 15.3941 11.5424 15.4842 11.9999 15.4842C12.924 15.4842 13.8103 15.1171 14.4637 14.4637C15.1171 13.8103 15.4842 12.924 15.4842 11.9999C15.4842 11.0758 15.1171 10.1896 14.4637 9.53618C13.8103 8.88275 12.924 8.51565 11.9999 8.51565Z" fill="black"/>
<path d="M6.84846 6.84858C7.52206 6.1591 8.32579 5.61014 9.21307 5.2335C10.1004 4.85686 11.0536 4.66003 12.0175 4.65442C12.9814 4.64881 13.9368 4.83452 14.8284 5.2008C15.72 5.56708 16.5301 6.10664 17.2117 6.78823C17.8933 7.46982 18.4328 8.27989 18.7991 9.1715C19.1654 10.0631 19.3511 11.0185 19.3455 11.9824C19.3399 12.9463 19.143 13.8995 18.7664 14.7868C18.3898 15.6741 17.8408 16.4778 17.1513 17.1514C15.7797 18.4915 13.935 19.2368 12.0175 19.2256C10.0999 19.2144 8.26405 18.4477 6.90811 17.0918C5.55216 15.7358 4.78546 13.9 4.77429 11.9824C4.76313 10.0649 5.5084 8.22023 6.84846 6.84858ZM11.9999 5.34858C10.2358 5.34858 8.544 6.04936 7.29661 7.29674C6.04923 8.54413 5.34846 10.2359 5.34846 12C5.34846 13.7641 6.04923 15.4559 7.29661 16.7033C8.544 17.9507 10.2358 18.6514 11.9999 18.6514C13.764 18.6514 15.4558 17.9507 16.7032 16.7033C17.9505 15.4559 18.6513 13.7641 18.6513 12C18.6513 10.2359 17.9505 8.54413 16.7032 7.29674C15.4558 6.04936 13.764 5.34858 11.9999 5.34858Z" fill="black"/>
<path d="M9.23583 5.91448C9.15845 5.90656 9.08668 5.87049 9.03416 5.81312C8.98164 5.75574 8.95204 5.68107 8.95098 5.6033C8.94992 5.52552 8.97748 5.45007 9.02842 5.39129C9.07936 5.33251 9.15012 5.29449 9.22725 5.28448L9.23154 5.60162V5.28448C9.25867 5.28343 9.28584 5.28343 9.31297 5.28448C9.3644 5.28448 9.44154 5.28448 9.53154 5.29305C10.6129 5.35361 11.6724 5.62284 12.6515 6.08591C13.5087 6.49733 14.383 7.13162 15.0344 8.08734C15.6901 9.05162 16.1187 10.3245 16.1187 12.0002C16.1187 12.0418 16.1105 12.0831 16.0945 12.1216C16.0786 12.16 16.0552 12.195 16.0258 12.2244C15.9963 12.2539 15.9614 12.2773 15.9229 12.2932C15.8844 12.3091 15.8432 12.3173 15.8015 12.3173C15.7599 12.3173 15.7187 12.3091 15.6802 12.2932C15.6417 12.2773 15.6067 12.2539 15.5773 12.2244C15.5478 12.195 15.5245 12.16 15.5085 12.1216C15.4926 12.0831 15.4844 12.0418 15.4844 12.0002C15.4844 10.4359 15.0901 9.29162 14.5115 8.44305C13.9709 7.66884 13.2344 7.0521 12.3773 6.65591C11.3973 6.19458 10.3316 5.94348 9.24868 5.91876H9.23583V5.91448ZM15.9473 6.10305C16.1015 6.01733 16.2901 6.06876 16.3758 6.22305L16.1015 6.37734L16.3801 6.22305V6.22733C16.432 6.3126 16.4778 6.40139 16.5173 6.49305C16.9888 7.47479 17.2737 8.5357 17.3573 9.62162C17.4258 10.5773 17.3144 11.653 16.8258 12.6945C16.333 13.7445 15.4673 14.7473 14.0573 15.5659C14.0215 15.5913 13.9808 15.6089 13.9378 15.6177C13.8949 15.6266 13.8506 15.6264 13.8077 15.6172C13.7648 15.6081 13.7243 15.5901 13.6887 15.5645C13.6531 15.5389 13.6232 15.5061 13.6009 15.4684C13.5786 15.4306 13.5643 15.3886 13.5591 15.3451C13.5538 15.3015 13.5577 15.2574 13.5703 15.2154C13.583 15.1734 13.6043 15.1345 13.6328 15.1012C13.6613 15.0678 13.6963 15.0407 13.7358 15.0216C15.0473 14.2588 15.8187 13.3502 16.2515 12.4288C16.6433 11.5646 16.8056 10.614 16.723 9.66876C16.6379 8.57626 16.3333 7.51216 15.8273 6.54019V6.53591C15.8066 6.49962 15.7934 6.45963 15.7883 6.41821C15.7832 6.3768 15.7863 6.33478 15.7974 6.29457C15.8086 6.25436 15.8275 6.21674 15.8532 6.18388C15.879 6.15101 15.9109 6.12355 15.9473 6.10305ZM5.36154 11.4002C5.37202 11.3811 5.38346 11.3625 5.39583 11.3445L5.49868 11.1645C6.02823 10.2858 6.72062 9.51636 7.53868 8.89734C8.29245 8.32739 9.19372 7.98532 10.1358 7.91162C11.1515 7.84733 12.3515 8.10876 13.7273 8.97448C13.7624 8.99881 13.8021 9.01578 13.844 9.02436C13.8859 9.03295 13.9291 9.03297 13.971 9.02444C14.0129 9.0159 14.0526 8.99898 14.0878 8.9747C14.123 8.95041 14.153 8.91926 14.1758 8.88311C14.1986 8.84696 14.2139 8.80657 14.2208 8.76436C14.2276 8.72215 14.2258 8.67899 14.2156 8.63749C14.2053 8.59598 14.1867 8.55698 14.161 8.52283C14.1353 8.48868 14.1029 8.46008 14.0658 8.43876C12.5915 7.51305 11.263 7.20448 10.093 7.28162C9.03221 7.36223 8.0166 7.74439 7.16583 8.38305C6.1868 9.10703 5.37913 10.0376 4.80011 11.1088V11.113L5.07868 11.2588L4.79583 11.113C4.77697 11.1502 4.76562 11.1907 4.76241 11.2322C4.75921 11.2738 4.76422 11.3155 4.77715 11.3551C4.79009 11.3947 4.81069 11.4314 4.8378 11.463C4.8649 11.4946 4.89797 11.5206 4.93511 11.5395C4.97226 11.5583 5.01275 11.5697 5.05428 11.5729C5.09582 11.5761 5.13758 11.5711 5.17717 11.5582C5.21677 11.5452 5.25343 11.5246 5.28507 11.4975C5.3167 11.4704 5.34269 11.4373 5.36154 11.4002ZM10.3758 8.55019C10.4658 8.70448 10.4101 8.89305 10.2601 8.97876C8.91868 9.73734 8.1344 10.6373 7.69725 11.5545C7.30083 12.4157 7.13965 13.3665 7.23011 14.3102C7.32632 15.4061 7.64573 16.4708 8.16868 17.4388L8.17297 17.4516C8.21559 17.5244 8.22757 17.6111 8.20627 17.6926C8.18498 17.7742 8.13214 17.844 8.0594 17.8866C7.98665 17.9292 7.89995 17.9412 7.81838 17.9199C7.7368 17.8986 7.66702 17.8458 7.6244 17.773L7.89868 17.6102L7.6244 17.7688V17.7645L7.61583 17.7516C7.56836 17.6676 7.52405 17.5818 7.48297 17.4945C6.99655 16.5126 6.69717 15.4488 6.60011 14.3573C6.50198 13.3045 6.68384 12.2444 7.12725 11.2845C7.6244 10.2388 8.50725 9.24448 9.94725 8.43019C10.1015 8.34448 10.2901 8.40019 10.3758 8.55019ZM8.21154 11.683C8.38725 11.6916 8.5244 11.8416 8.51154 12.013C8.44297 13.5773 8.80297 14.713 9.36868 15.553C9.91165 16.331 10.6592 16.9436 11.5287 17.323C12.5567 17.7891 13.6701 18.0372 14.7987 18.0516H14.8115C14.889 18.0589 14.9611 18.0945 15.0141 18.1515C15.0671 18.2085 15.0972 18.2831 15.0988 18.3609C15.1004 18.4387 15.0733 18.5144 15.0227 18.5735C14.9721 18.6327 14.9015 18.6712 14.8244 18.6816L14.8158 18.3645L14.8201 18.6816H14.8158C14.7887 18.6823 14.7615 18.6823 14.7344 18.6816C14.6787 18.6816 14.6058 18.6816 14.503 18.673C13.385 18.6152 12.287 18.3538 11.263 17.9016C10.287 17.4721 9.44891 16.7809 8.84154 15.9045C8.1944 14.9402 7.8044 13.663 7.88154 11.9873C7.89011 11.8116 8.04011 11.6745 8.21154 11.6873V11.683ZM19.0544 12.4545C19.2173 12.5359 19.2815 12.7245 19.2044 12.883V12.8873C19.1589 12.9798 19.1089 13.0699 19.0544 13.1573C18.5014 14.1088 17.7693 14.9442 16.8987 15.6173C16.0602 16.2638 15.0525 16.6537 13.9973 16.7402C12.8358 16.8216 11.503 16.5216 10.0158 15.6088C9.97732 15.5887 9.94335 15.5608 9.91603 15.5271C9.88872 15.4933 9.86863 15.4543 9.85702 15.4124C9.84541 15.3705 9.84253 15.3267 9.84855 15.2837C9.85457 15.2407 9.86937 15.1993 9.89202 15.1623C9.91467 15.1252 9.9447 15.0932 9.98024 15.0682C10.0158 15.0432 10.0561 15.0258 10.0986 15.017C10.1412 15.0083 10.1851 15.0083 10.2276 15.0172C10.2701 15.0261 10.3104 15.0437 10.3458 15.0688C11.7387 15.9259 12.943 16.1788 13.9544 16.1059C14.8881 16.0291 15.7797 15.6838 16.5215 15.1116C17.4029 14.4428 18.1246 13.5864 18.6344 12.6045C18.6527 12.567 18.6782 12.5336 18.7094 12.506C18.7406 12.4784 18.777 12.4573 18.8164 12.4437C18.8558 12.4302 18.8974 12.4246 18.939 12.4271C18.9806 12.4297 19.0213 12.4405 19.0587 12.4588L19.0544 12.4545ZM10.9373 10.7145H12.2873L12.0558 10.2859H10.9415V10.7145H10.9373ZM12.1758 10.2945L12.2401 10.423C12.2626 10.4581 12.2841 10.4938 12.3044 10.5302L12.3387 10.5945C12.3587 10.631 12.3801 10.6668 12.403 10.7016C12.4227 10.7383 12.4442 10.7741 12.4673 10.8088L12.5401 10.933L12.5573 10.963C12.5904 11.0273 12.6262 11.0902 12.6644 11.1516C12.6944 11.2116 12.733 11.2373 12.7415 11.203C12.7415 11.1945 12.7587 11.1602 12.7844 11.1302C12.7979 11.1084 12.8093 11.0855 12.8187 11.0616L12.8487 11.0188L12.8744 10.9759L12.9173 10.903C13.0073 10.7488 13.0544 10.6502 13.0544 10.6202C13.0544 10.5945 13.0158 10.5516 12.943 10.4959C12.8573 10.4359 12.8573 10.4316 12.7758 10.393C12.6954 10.3532 12.6105 10.323 12.523 10.303C12.4079 10.2881 12.2915 10.2852 12.1758 10.2945ZM13.1187 10.7359C13.1138 10.7442 13.1096 10.7528 13.1058 10.7616L13.0844 10.8045C13.0734 10.818 13.0634 10.8324 13.0544 10.8473L13.0158 10.9159L12.973 10.9802L12.9601 11.0188C12.9059 11.0967 12.8572 11.1783 12.8144 11.263C12.8057 11.275 12.7985 11.288 12.793 11.3016L12.7673 11.3445C12.7574 11.358 12.7488 11.3723 12.7415 11.3873C12.7415 11.3916 12.7287 11.4216 12.7073 11.4516C12.6799 11.4911 12.6555 11.5327 12.6344 11.5759C12.5985 11.6335 12.5642 11.6921 12.5315 11.7516L12.4887 11.8288C12.4673 11.8716 12.4801 11.8716 12.5744 11.8802L12.9044 11.8888C13.1915 11.8888 13.1615 11.8973 13.2215 11.7645C13.2901 11.6102 13.3073 11.5073 13.3073 11.3273C13.3151 11.1492 13.2767 10.972 13.1958 10.813C13.153 10.7316 13.1358 10.7145 13.1187 10.7359ZM11.0187 10.8002C10.9844 10.8045 10.963 10.8088 10.9544 10.8216C10.9416 11.1386 10.9387 11.4559 10.9458 11.773C10.9501 11.8716 10.9544 11.8845 10.9673 11.8845C10.9801 11.8845 10.993 11.8673 11.0101 11.8373C11.077 11.7091 11.1485 11.5833 11.2244 11.4602L11.2544 11.413L11.2715 11.383C11.3504 11.2572 11.4248 11.1285 11.4944 10.9973L11.5201 10.9545L11.5587 10.8859C11.593 10.8259 11.5973 10.8216 11.5844 10.813C11.5758 10.8045 11.1301 10.7959 11.0187 10.8045V10.8002ZM11.3315 11.473L10.9458 12.1288V13.7145H11.5715V12.4288H11.8801L11.383 11.4902C11.383 11.4816 11.353 11.4559 11.3444 11.4559L11.3315 11.473ZM11.7944 12.0002L12.6944 13.7145H13.4101L12.6558 12.3088L13.0715 12.0002H11.7944Z" fill="black"/>
</g>
<defs>
<clipPath id="clip0_31_18221">
<rect width="24" height="24" fill="white"/>
</clipPath>
</defs>
</svg>

<svg xmlns="http://www.w3.org/2000/svg" width="24" height="24" fill="none" viewBox="0 0 24 24"><g clip-path="url(#a)"><path fill="#F0F3FA" d="M0 0h24v24H0z"/><path fill="#000" d="M10.423 8.194a4.12 4.12 0 1 1 3.154 7.611 4.12 4.12 0 0 1-3.154-7.61M12 8.516a3.484 3.484 0 1 0 0 6.968 3.484 3.484 0 0 0 0-6.968"/><path fill="#000" d="M6.848 6.849A7.286 7.286 0 1 1 17.271 17.03 7.286 7.286 0 0 1 6.848 6.85M12 5.349a6.651 6.651 0 1 0 0 13.302A6.651 6.651 0 0 0 12 5.35"/><path fill="#000" d="M9.236 5.914a.317.317 0 0 1-.009-.63l.005.318v-.318h.081c.051 0 .129 0 .219.01 1.08.06 2.14.329 3.12.792.857.411 1.731 1.046 2.382 2.001.656.965 1.085 2.238 1.085 3.913a.316.316 0 1 1-.635 0c0-1.564-.394-2.708-.973-3.557a5.33 5.33 0 0 0-2.134-1.787 7.8 7.8 0 0 0-3.128-.737h-.013zm6.711.189a.31.31 0 0 1 .429.12l-.274.154.278-.154v.004q.078.129.137.266c.472.982.757 2.043.84 3.129.069.955-.043 2.031-.531 3.073-.493 1.05-1.359 2.052-2.769 2.87a.316.316 0 0 1-.456-.097.317.317 0 0 1 .135-.446c1.311-.763 2.083-1.672 2.515-2.593a5.5 5.5 0 0 0 .472-2.76 8.15 8.15 0 0 0-.896-3.129v-.004a.315.315 0 0 1 .12-.433M5.362 11.4l.034-.056.103-.18a8.1 8.1 0 0 1 2.04-2.267 4.95 4.95 0 0 1 2.597-.985c1.016-.065 2.216.197 3.591 1.062a.316.316 0 0 0 .489-.337.32.32 0 0 0-.15-.198c-1.475-.926-2.803-1.235-3.973-1.157a5.6 5.6 0 0 0-2.927 1.101A8.3 8.3 0 0 0 4.8 11.11v.004l.279.146-.283-.146a.318.318 0 0 0 .566.287m5.014-2.85a.31.31 0 0 1-.116.429c-1.341.758-2.126 1.658-2.563 2.576a5.37 5.37 0 0 0-.467 2.755 8.1 8.1 0 0 0 .939 3.129l.004.013a.318.318 0 0 1-.549.321l.275-.163-.275.159v-.004l-.008-.013A8.829 8.829 0 0 1 6.6 14.358a6 6 0 0 1 .527-3.074c.497-1.045 1.38-2.04 2.82-2.854a.315.315 0 0 1 .429.12m-2.164 3.133a.313.313 0 0 1 .3.33c-.069 1.564.291 2.7.857 3.54a5.14 5.14 0 0 0 2.16 1.77 8.2 8.2 0 0 0 3.27.729h.013a.317.317 0 0 1 .012.63l-.008-.317.004.317h-.086c-.055 0-.128 0-.231-.009a9.2 9.2 0 0 1-3.24-.771 5.8 5.8 0 0 1-2.421-1.998c-.648-.964-1.038-2.241-.96-3.917a.313.313 0 0 1 .33-.3zm10.842.771a.32.32 0 0 1 .15.429v.004a8.523 8.523 0 0 1-2.306 2.73 5.5 5.5 0 0 1-2.9 1.123c-1.162.082-2.495-.218-3.982-1.131a.318.318 0 0 1-.036-.54.32.32 0 0 1 .366 0c1.393.857 2.597 1.11 3.608 1.037a4.86 4.86 0 0 0 2.567-.994 7.5 7.5 0 0 0 2.113-2.508.317.317 0 0 1 .425-.145zm-8.117-1.74h1.35l-.231-.428h-1.114v.428zm1.239-.42.064.129q.034.052.064.107l.035.065q.03.054.064.107.03.054.064.107l.073.124.017.03q.05.096.107.189c.03.06.069.085.078.051 0-.008.017-.043.042-.073a.4.4 0 0 0 .035-.068l.03-.043.025-.043.043-.073c.09-.154.137-.253.137-.283q0-.039-.111-.124c-.086-.06-.086-.064-.167-.103q-.12-.06-.253-.09a1.7 1.7 0 0 0-.347-.009m.943.442-.013.026-.022.043-.03.042-.038.069-.043.064-.013.039q-.081.117-.146.244a.2.2 0 0 0-.021.039l-.026.043a.3.3 0 0 0-.025.042.2.2 0 0 1-.035.065 1 1 0 0 0-.073.124q-.054.086-.103.176l-.042.077c-.022.043-.009.043.085.051l.33.009c.287 0 .258.008.318-.124a.9.9 0 0 0 .085-.438 1.03 1.03 0 0 0-.111-.514c-.043-.081-.06-.099-.077-.077m-2.1.064c-.035.005-.056.009-.065.022q-.018.476-.008.951c.004.099.008.111.021.111q.018-.001.043-.047.101-.192.214-.377l.03-.047.018-.03q.118-.188.222-.386l.026-.043.039-.068c.034-.06.038-.064.025-.073a6 6 0 0 0-.565-.008zm.313.673-.386.656v1.585h.626V12.43h.308l-.497-.939c0-.008-.03-.034-.039-.034zm.462.527.9 1.714h.716l-.754-1.405.415-.309z"/></g><defs><clipPath id="a"><path fill="#fff" d="M0 0h24v24H0z"/></clipPath></defs></svg>
